X:192
T:Glen Ogle
L:1/8
R:Reel
M:C|
K:D % 2 sharps
A|"D"d2fd "G"B2ed|"A"cABC "D"dAFA|"D"2dfd"G"B2ed|"A7"cABc "D"d3A|\
"D"d2fd "G"B2ed|"A"cABc "D"dAFA|"D"d2fd "G"gfed|"A7"cABc "D"d3:||:e\
"Bm"f2df "Em"gfed|"A"cABc "D"dAFA|"D"f2df "G"gfed|"A7"cABc "D"d2de|\
"Bm"f2df "Em"gfed|"A"cABc "D"dAFD|"D"Adfd "Em"Bege|"A7"cgec d3:||

%  <A name="D1X193"></A>
